X: 1886
T: Standing Stones Polka
C:Dave Moss
B: australian traditional tunes wiki
M:2/4
L:1/8
R: Polka
Q: 1/4=100
K:G
V:1 
d|:"G"GB d>d|"C"ec "D7"A>G|AB cA|"G"G/A/B/c/ dc/B/|
GB d>d|"C"ec "D7"A>c| "G"Bd "D7"cA/G/|1"G"BG G>d:|2"G"BG  Gd/c/||
|:"G"Bd "D7"de/f/|"G"g>d g/f/e/d/|Bc d>e|BA "D7"A>d|
"G"Bd "D7"de/f/|"G"g>d g/f/e/d/|"D" af/a/ "A7"gf/e/|"G"d>e d/c/B/A/||
GB d>d|"C"ec "D7"A>G|AB cA|"G"G/A/B/c/ dc/B/|
GB d>d|"C"ec "D7"A>B|"G"Bd "D7"cB/A/|1"G"BG G>d:|2"G"BG HG2||
% abcbook-tune_id 6342d53a5750b22d8b2c35e9


% abcbook-boost 0
% abcbook-tablature 
% abcbook-transpose 
% abcbook-lastupdated 1665324390605
% abcbook-soundfonts 
% abcbook-repeats 1
% NFF Book 2020

